assets/icons/carriage/HALBSPEISEWAGENZWEITEKLASSE.svg

<svg width="34" height="34" viewBox="0 0 34 34" fill="none" xmlns="http://www.w3.org/2000/svg">
<rect width="34" height="34" rx="17" fill="#414141"/>
<path d="M7.37725 27L6.14861 25.7706L18.4351 13.4766C18.006 12.5399 17.9085 11.569 18.1425 10.564C18.3766 9.55904 18.9324 8.61748 19.81 7.73933C20.6876 6.8807 21.7505 6.32942 22.9986 6.08549C24.2467 5.84156 25.2706 6.11964 26.0702 6.91973C26.8893 7.73933 27.1672 8.76383 26.9039 9.99324C26.6407 11.2226 26.0507 12.3057 25.1341 13.2424C24.3345 14.062 23.4423 14.5986 22.4574 14.8523C21.4725 15.106 20.5511 15.0475 19.693 14.6767L17.733 16.6379L26.8601 25.7706L25.6314 27L16.5043 17.8673L7.37725 27ZM11.0339 16.7257L7.55277 13.2424C6.55816 12.2471 6.04134 11.0665 6.00234 9.70052C5.96334 8.33452 6.41189 7.12463 7.348 6.07085L14.5151 13.2424L11.0339 16.7257Z" fill="white"/>
</svg>

<svg xmlns="http://www.w3.org/2000/svg" width="34" height="34" fill="none"><rect width="34" height="34" fill="#414141" rx="17"/><path fill="#fff" d="M7.377 27 6.15 25.77l12.286-12.293a4.41 4.41 0 0 1-.293-2.913c.235-1.005.79-1.947 1.668-2.825.878-.858 1.94-1.41 3.189-1.654 1.248-.243 2.272.035 3.071.835.82.82 1.097 1.844.834 3.073-.263 1.23-.853 2.313-1.77 3.25-.8.819-1.692 1.356-2.677 1.61-.985.253-1.906.194-2.764-.176l-1.96 1.96 9.127 9.134L25.631 27l-9.127-9.133L7.377 27Zm3.657-10.274-3.481-3.484c-.995-.995-1.512-2.176-1.55-3.541-.04-1.366.409-2.576 1.345-3.63l7.167 7.171-3.481 3.484Z"/></svg>
